assets/home-tab/Asset/flash.svg

<svg width="8" height="13" viewBox="0 0 8 13" fill="none" xmlns="http://www.w3.org/2000/svg">
<path d="M0.00895739 6.24118L1.88588 0.141183C1.9117 0.0572645 1.98924 0 2.07704 0H5.64228C5.78149 0 5.87812 0.138681 5.8299 0.269275L4.59599 3.61111H7.5857C7.73903 3.61111 7.83533 3.77657 7.7596 3.9099L3.06592 12.1727C2.95902 12.3609 2.67098 12.2688 2.69306 12.0535L3.26265 6.5H0.200113C0.0655521 6.5 -0.0306151 6.36979 0.00895739 6.24118Z" fill="#E58411"/>
</svg>

<svg xmlns="http://www.w3.org/2000/svg" width="8" height="13" fill="none" viewBox="0 0 8 13"><path fill="#e58411" d="m.009 6.241 1.877-6.1A.2.2 0 0 1 2.077 0h3.565a.2.2 0 0 1 .188.27L4.596 3.61h2.99a.2.2 0 0 1 .174.299l-4.694 8.263c-.107.188-.395.096-.373-.12l.57-5.553H.2a.2.2 0 0 1-.191-.259"/></svg>
